X: 163
T: Yiyangyang de gege liangyangyang kandai
L: 1/8
M: 2/4
K: Bb
c'> d'c'2 [I:setbarnb 1]| 
c' bg2 | 
c' c' d f | 
g4 | 
c' c' c' b | 
g g g f | 
d d d c/ d/ | 
c4 |]

@@@ Tune index: 9037
